!!!!SEGMENT: Con2004-Ego_sum_qui_sum.krn
!!!id: Con2004
!!!AGN: Motet
!!!SCT: Slim (1972)
!!!voices: 5
!!!COM: Jean Conseil
!!!OTL: Ego sum qui sum
**kern	**kern	**kern	**kern	**kern
*part5	*part4	*part3	*part2	*part1
*staff5	*staff4	*staff3	*staff2	*staff1
*I"Bassus	*I"Tenor II	*I"Tenor I	*I"Altus	*I"Superius
*I'B	*I'T. II	*I'T. I	*I'A	*I'S
*clefF4	*clefGv2	*clefGv2	*clefGv2	*clefG2
*k[b-]	*k[b-]	*k[b-]	*k[b-]	*k[b-]
*F:	*F:	*F:	*F:	*F:
*M2/1	*M2/1	*M2/1	*M2/1	*M2/1
*met(C|)	*met(C|)	*met(C|)	*met(C|)	*met(C|)
!!section: Prima pars: Ego sum qui sum
!!!OMD: Prima pars: Ego sum qui sum
=1	=1	=1	=1	=1
0r	1r	0r	0r	1f
.	1F	.	.	1cc
=2	=2	=2	=2	=2
0r	1c	0r	0r	1cc
.	1c	.	.	2r
.	.	.	.	[2cc
=3	=3	=3	=3	=3
0r	2r	1F	0r	4cc]
.	.	.	.	4b-y
.	2.c	.	.	4a
.	.	.	.	4g
.	.	1c	.	1a
.	4B-y	.	.	.
.	4A	.	.	.
.	4G	.	.	.
=4	=4	=4	=4	=4
0r	1.F	1c	0r	2a
.	.	.	.	1a
.	.	1d	.	.
.	2G	.	.	4g
.	.	.	.	4f
=5	=5	=5	=5	=5
0r	1A	1c	0r	2e
.	.	.	.	2.cc
.	1F	2r	.	.
.	.	.	.	4b-y
.	.	[2c	.	4a
.	.	.	.	4g
=6	=6	=6	=6	=6
1r	1c	4c]	1F	2f
.	.	4B-y	.	.
.	.	4A	.	2.a
.	.	4G	.	.
1FF	1c	2F	1c	.
.	.	.	.	4g
.	.	2A	.	[2f
=7	=7	=7	=7	=7
1C	1r	0G	1c	2f]
.	.	.	.	4e
.	.	.	.	4d
1C	2r	.	2r	1e
.	[2c	.	[2G	.
=8	=8	=8	=8	=8
1D	2c]	0r	2G]	1f
.	2B-y	.	2F	.
1C	2c	.	2G	[1e
.	2c	.	[2A	.
=9	=9	=9	=9	=9
2r	2.c	1r	2A]	1e]
2.C	.	.	4G	.
.	8B-yL	.	4F	.
.	8AJ	.	.	.
.	2G	2r	1E	1r
4BB-y	.	.	.	.
4AA	[2A	[2c	.	.
4GG	.	.	.	.
=10	=10	=10	=10	=10
2FF	4A]	2c]	0r	0r
.	4G	.	.	.
2AA	4E	2c	.	.
.	4F	.	.	.
4GG	1G	2B-y	.	.
4AA	.	.	.	.
4BB-y	.	2B-y	.	.
4C	.	.	.	.
=11	=11	=11	=11	=11
4D	1F	2.A	0r	0r
4E	.	.	.	.
2.F	.	.	.	.
.	.	8GL	.	.
.	.	8FJ	.	.
.	2r	1G	.	.
4E	.	.	.	.
4E	[2c	.	.	.
8DL	.	.	.	.
8EJ	.	.	.	.
=12	=12	=12	=12	=12
1F	2c]	1A	1r	0r
.	2c	.	.	.
1BB-y	2B-y	2F	2r	.
.	2B-y	4D	[2f	.
.	.	4E	.	.
=13	=13	=13	=13	=13
1D	2.A	4F	2f]	0r
.	.	4G	.	.
.	.	4A	2f	.
.	8GL	4B-y	.	.
.	8FJ	.	.	.
1C	2G	1c	2e	.
.	2A	.	2e	.
=14	=14	=14	=14	=14
1BB-y	1B-y	[0F	1d	0r
1r	2A	.	4c	.
.	.	.	4B-y	.
.	[2c	.	4A	.
.	.	.	4G	.
=15	=15	=15	=15	=15
0r	4c]	1F]	2F	2r
.	4B-y	.	.	.
.	4A	.	2.c	1cc
.	4G	.	.	.
.	2F	2r	.	.
.	.	.	4F	.
.	2A	2F	[2f	2cc
=16	=16	=16	=16	=16
1r	1G	1B-y	2f]	2b-y
.	.	.	2e	2b-y
2r	1F	2.c	2.f	[1a
[2F	.	.	.	.
.	.	4B-y	8eL	.
.	.	.	8dJ	.
=17	=17	=17	=17	=17
2F]	0r	2A	2c	2a]
2F	.	2F	1d	2a
2E	.	1G	.	1g
2E	.	.	2c	.
=18	=18	=18	=18	=18
1.D	2r	2.A	2.d	2.f
.	1f	.	.	.
.	.	4G	8cL	4g
.	.	.	8B-yJ	.
.	.	2F	2A	2a
2D	2f	2D	2F	2b-y
=19	=19	=19	=19	=19
1C	2e	1E	2G	1cc
.	2e	.	2A	.
[1BB-y	[1d	[1F	1B-y	[1f
=20	=20	=20	=20	=20
2BB-]	2d]	1F]	1.f	2f]
2BB-y	2d	.	.	1b-y
1F	1c	1r	.	.
.	.	.	2f	2a
=21	=21	=21	=21	=21
2.G	1B-y	0r	1d	2.b-y
4F	.	.	.	4a
2E	2.c	.	1e-X	4g
.	.	.	.	4f
2C	.	.	.	[2g
.	4B-y	.	.	.
=22	=22	=22	=22	=22
1D	2A	1r	2d	4g]
.	.	.	.	4f
.	4G	.	2B-y	1f
.	4F	.	.	.
1C	1G	2r	1c	.
.	.	2c	.	2e
=23	=23	=23	=23	=23
0FF	0F	2c	1A	0f
.	.	2c	.	.
.	.	1A	2r	.
.	.	.	2c	.
=24	=24	=24	=24	=24
0r	0r	1.c	2c	0r
.	.	.	2c	.
.	.	.	1A	.
.	.	2B-y	.	.
=25	=25	=25	=25	=25
1r	0r	0A	1.c	0r
1F	.	.	.	.
.	.	.	2B-y	.
=26	=26	=26	=26	=26
2F	0r	2r	1A	0r
2F	.	1c	.	.
1D	.	.	2r	.
.	.	2B-y	2F	.
=27	=27	=27	=27	=27
1.F	0r	2.A	4F	0r
.	.	.	4G	.
.	.	.	4A	.
.	.	8GL	4B-y	.
.	.	8FJ	.	.
.	.	2A	2c	.
2E	.	[2G	2c	.
=28	=28	=28	=28	=28
1D	0r	4G]	4B-y	0r
.	.	4F	4A	.
.	.	1F	8B-yL	.
.	.	.	8A	.
.	.	.	8G	.
.	.	.	8FJ	.
2r	.	.	1G	.
2C	.	2E	.	.
=29	=29	=29	=29	=29
4D	0r	2.F	1F	0r
4C	.	.	.	.
4D	.	.	.	.
4E	.	4G	.	.
2F	.	2A	1r	.
[2G	.	[2B-y	.	.
=30	=30	=30	=30	=30
2G]	2r	4B-]	0r	1r
.	.	4A	.	.
1F	2c	4G	.	.
.	.	4F	.	.
.	2c	1G	.	2r
2E	2c	.	.	2cc
=31	=31	=31	=31	=31
[0F	1A	1F	0r	2cc
.	.	.	.	2cc
.	[1c	1r	.	1a
=32	=32	=32	=32	=32
0F]	2c]	0r	2r	1.cc
.	2B-y	.	2f	.
.	2.A	.	2f	.
.	.	.	2f	2cc
.	8GL	.	.	.
.	8FJ	.	.	.
=33	=33	=33	=33	=33
0r	1G	0r	1d	1b-y
.	[1F	.	[1f	2.a
.	.	.	.	4g
=34	=34	=34	=34	=34
0r	1F]	0r	2f]	4a
.	.	.	.	4b-y
.	.	.	2e	1cc
.	2r	.	1d	.
.	2G	.	.	2bni
=35	=35	=35	=35	=35
0r	4A	0r	0r	1cc
.	4B-y	.	.	.
.	4c	.	.	.
.	4A	.	.	.
.	2B-y	.	.	2r
.	[2c	.	.	2g
=36	=36	=36	=36	=36
0r	4c]	0r	1r	4a
.	4B-y	.	.	4g
.	4A	.	.	4a
.	4G	.	.	4b-y
.	1A	.	2r	2cc
.	.	.	2c	2cc
=37	=37	=37	=37	=37
0r	4G	0r	4d	1b-y
.	4A	.	4c	.
.	4B-y	.	4d	.
.	4c	.	4e	.
.	2d	.	2f	2a
.	4G	.	[2g	[2b-y
.	4A	.	.	.
=38	=38	=38	=38	=38
0r	4B-y	1r	2g]	4b-]
.	4c	.	.	4a
.	2d	.	1f	8b-yL
.	.	.	.	8a
.	.	.	.	8g
.	.	.	.	8fJ
.	1c	2r	.	1g
.	.	2c	2e	.
=39	=39	=39	=39	=39
1r	0F	2c	0f	0f
.	.	2c	.	.
2r	.	1A	.	.
2F	.	.	.	.
=40	=40	=40	=40	=40
2F	0r	1.c	0r	0r
2F	.	.	.	.
1D	.	.	.	.
.	.	2B-y	.	.
=41	=41	=41	=41	=41
1.F	0r	1.A	2r	1r
.	.	.	2c	.
.	.	.	4d	2r
.	.	.	4c	.
2E	.	2G	4d	2g
.	.	.	4e	.
=42	=42	=42	=42	=42
1D	1r	2F	1f	4a
.	.	.	.	4g
.	.	2F	.	4a
.	.	.	.	4b-y
[1C	2r	2G	1e	[1cc
.	2G	[2c	.	.
=43	=43	=43	=43	=43
1C]	4A	4c]	1e	2cc]
.	4G	4B-y	.	.
.	4A	4A	.	2cc
.	4B-y	4G	.	.
1r	2c	1F	2r	1cc
.	2A	.	2c	.
=44	=44	=44	=44	=44
0r	1G	0r	4d	1b-y
.	.	.	4c	.
.	.	.	4d	.
.	.	.	4e	.
.	2.F	.	[1f	2a
.	.	.	.	[2cc
.	4G	.	.	.
=45	=45	=45	=45	=45
2r	4A	0r	2f]	4cc]
.	4B-y	.	.	4b-y
2C	4c	.	2e	1a
.	4A	.	.	.
4D	1B-y	.	2f	.
4C	.	.	.	.
4D	.	.	4e	2g
4E	.	.	4d	.
=46	=46	=46	=46	=46
2F	2A	0r	2c	2a
2BB-y	2.d	.	1f	2.b-y
1F	.	.	.	.
.	4c	.	.	4a
.	4B-y	.	2f	[2a
.	4A	.	.	.
=47	=47	=47	=47	=47
1G	1B-y	1r	2.d	2a]
.	.	.	.	2g
.	.	.	4e	.
[1F	[1A	2r	[1f	[1a
.	.	2c	.	.
=48	=48	=48	=48	=48
1F]	2A]	4d	1f]	0a]
.	.	4c	.	.
.	2A	4d	.	.
.	.	4e	.	.
2r	4F	2.f	2r	.
.	4E	.	.	.
[2F	4F	.	2c	.
.	4G	4e	.	.
=49	=49	=49	=49	=49
2F]	2A	2d	2d	0r
2E	2.G	1c	2e	.
1D	.	.	2.f	.
.	4F	.	.	.
.	[2F	2B-y	.	.
.	.	.	8eL	.
.	.	.	8dJ	.
=50	=50	=50	=50	=50
1C	2F]	2A	1e	1r
.	2E	2.G	.	.
2BB-y	1F	.	2d	2r
.	.	4F	.	.
2AA	.	[2F	2c	[2cc
=51	=51	=51	=51	=51
1GG	1r	2F]	2d	2cc]
.	.	2E	2B-y	2b-y
2FF	2r	2F	2.c	2a
2C	2G	2E	.	[2g
.	.	.	4B-y	.
=52	=52	=52	=52	=52
2D	2d	2F	2A	4g]
.	.	.	.	4f
2BB-y	2d	2D	2B-y	1f
1C	2.c	1E	1G	.
.	.	.	.	2e
.	4B-y	.	.	.
=53	=53	=53	=53	=53
1FF	4A	2C	0F	0f
.	4G	.	.	.
.	2.A	2.c	.	.
2r	.	.	.	.
.	4G	4B-y	.	.
[2F	4A	4A	.	.
.	4B-y	4G	.	.
=54	=54	=54	=54	=54
2F]	4c	2A	1r	0r
.	4d	.	.	.
2E	1c	1G	.	.
1D	.	.	2r	.
.	2Bni	2F	[2f	.
=55	=55	=55	=55	=55
1C	1c	0G	2f]	2r
.	.	.	2e	1cc
1r	1r	.	1d	.
.	.	.	.	2b-y
=56	=56	=56	=56	=56
0r	0r	2r	2.c	1a
.	.	1c	.	.
.	.	.	4d	.
.	.	.	2e	2g
.	.	2B-y	[2f	[2dd
=57	=57	=57	=57	=57
0r	1r	1A	4f]	4dd]
.	.	.	4e	4cc
.	.	.	4d	1cc
.	.	.	4c	.
.	2r	1G	1d	.
.	[2B-y	.	.	2bni
=58	=58	=58	=58	=58
2r	2B-]	1r	1.c	1cc
1F	2A	.	.	.
.	1G	2r	.	2r
2E	.	[2c	2c	2c
=59	=59	=59	=59	=59
1D	1F	2c]	1d	2.f
.	.	2B-y	.	.
.	.	.	.	8eL
.	.	.	.	8dJ
2C	[1c	2.A	1r	2e
[2F	.	.	.	[2a
.	.	4G	.	.
=60	=60	=60	=60	=60
2F]	2c]	4A	0r	2a]
.	.	4B-y	.	.
2E	2G	4c	.	2.g
.	.	4A	.	.
1D	2d	4B-y	.	.
.	.	4A	.	4f
.	2B-y	4G	.	[2f
.	.	4F	.	.
=61	=61	=61	=61	=61
1C	1c	1G	2r	2f]
.	.	.	2G	2e
[1FF	2.c	[1F	1A	[1f
.	4B-y	.	.	.
=62	=62	=62	=62	=62
1FF]	2A	0F]	1c	2f]
.	2F	.	.	2.a
1r	1A	.	1c	.
.	.	.	.	4g
.	.	.	.	[2f
=63	=63	=63	=63	=63
1C	1G	1r	1c	2f]
.	.	.	.	2e
1D	2F	2r	1r	[1f
.	[2A	2F	.	.
=64	=64	=64	=64	=64
1F	2A]	1A	0r	0f]
.	2.c	.	.	.
1F	.	1c	.	.
.	4B-y	.	.	.
.	4A	.	.	.
.	4G	.	.	.
=65	=65	=65	=65	=65
1F	1A	1c	0r	0r
2E	2G	1c	.	.
[2F	[2A	.	.	.
=66	=66	=66	=66	=66
4F]	2A]	2r	1c	0r
4E	.	.	.	.
4D	1F	2A	.	.
4C	.	.	.	.
[1BB-y	.	2B-y	1d	.
.	[2G	2B-y	.	.
=67	=67	=67	=67	=67
2BB-]	4G]	1d	1f	0r
.	4F	.	.	.
2BB-y	1B-y	.	.	.
1F	.	1c	1f	.
.	2A	.	.	.
=68	=68	=68	=68	=68
2.BB-y	2.B-y	2.d	0f	0r
4C	8AL	8cL	.	.
.	8GJ	8B-yJ	.	.
4D	2.F	[1A	.	.
4E	.	.	.	.
[2F	.	.	.	.
.	4G	.	.	.
=69	=69	=69	=69	=69
2F]	4A	2A]	1r	0r
.	4B-y	.	.	.
2E	1c	2G	.	.
1D	.	1F	2r	.
.	2Bni	.	[2f	.
=70	=70	=70	=70	=70
1C	0c	1G	2f]	2r
.	.	.	2e	2g
[1FF	.	1F	1d	1a
=71	=71	=71	=71	=71
1FF]	0r	2r	[0c	1cc
.	.	2F	.	.
2r	.	[1A	.	1cc
[2F	.	.	.	.
=72	=72	=72	=72	=72
2F]	2r	2A]	1c]	1cc
2E	1c	2G	.	.
2F	.	2A	2r	1r
2D	2B-y	2F	[2f	.
=73	=73	=73	=73	=73
1C	2.c	1G	2f]	2r
.	.	.	2e	1cc
.	4B-y	.	.	.
1r	2A	1r	2f	.
.	2G	.	2d	2b-y
=74	=74	=74	=74	=74
0r	2A	1r	2c	2cc
.	2F	.	1f	2a
.	1c	2r	.	2.g
.	.	[2c	4e	.
.	.	.	4d	4f
=75	=75	=75	=75	=75
0r	0r	2c]	2c	2e
.	.	2B-y	2.d	2.f
.	.	2c	.	.
.	.	.	4c	4e
.	.	2A	[2c	4d
.	.	.	.	4c
=76	=76	=76	=76	=76
1r	2r	1G	2c]	1d
.	1B-y	.	2Bni	.
2r	.	1r	1c	1r
[2F	2A	.	.	.
=77	=77	=77	=77	=77
2F]	2B-y	1r	2r	1r
2E	2G	.	1c	.
2F	1F	2r	.	2r
2D	.	[2F	2B-y	2f
=78	=78	=78	=78	=78
1C	1r	2F]	1c	2g
.	.	2E	.	2a
2.BB-y	2r	1F	2d	[1b-y
.	[2F	.	2c	.
4AA	.	.	.	.
=79	=79	=79	=79	=79
1GG	2F]	1G	2B-y	1b-]
.	2E	.	2G	.
1FF	1F	[1C	2.c	2a
.	.	.	.	[2cc
.	.	.	4d	.
=80	=80	=80	=80	=80
2r	1G	1C]	4e	4cc]
.	.	.	4f	4b-y
1C	.	.	1e	2g
.	1F	2r	.	2a
2BB-y	.	[2F	[2d	2b-y
=81	=81	=81	=81	=81
1C	2.c	2F]	4d]	2g
.	.	.	4c	.
.	.	2E	1c	2.a
.	4B-y	.	.	.
1D	2A	1F	.	.
.	.	.	.	4g
.	2B-y	.	2Bni	[2f
=82	=82	=82	=82	=82
1C	2G	1G	1c	2f]
.	2.c	.	.	2e
[1FF	.	[1F	2A	[1f
.	4B-y	.	.	.
.	4A	.	[2c	.
.	4G	.	.	.
=83	=83	=83	=83	=83
0FF_	[0A	0F_	2c]	1f]
.	.	.	2c	.
.	.	.	1c	2r
.	.	.	.	[2cc
=84	=84	=84	=84	=84
0FF_	0A]	1F]	2r	2cc]
.	.	.	1f	2cc
.	.	2r	.	1cc
.	.	[2F	[2f	.
=85	=85	=85	=85	=85
1FF]	0r	2F]	1f]	2r
.	.	2F	.	1cc
1r	.	2F	2r	.
.	.	[2F	[2f	2cc
=86	=86	=86	=86	=86
0r	0r	2F]	2f]	2a
.	.	2F	2f	2a
.	.	1G	2d	2.b-y
.	.	.	2d	.
.	.	.	.	4a
=87	=87	=87	=87	=87
0r	0r	1C	2.e	2g
.	.	.	.	2.cc
.	.	.	4d	.
.	.	[1F	2c	.
.	.	.	.	4b-y
.	.	.	[2f	4a
.	.	.	.	4g
=88	=88	=88	=88	=88
0r	0r	2F]	4f]	2a
.	.	.	4e	.
.	.	1G	4d	2.b-y
.	.	.	4c	.
.	.	.	2d	.
.	.	.	.	4a
.	.	2A	2c	[2a
=89	=89	=89	=89	=89
0r	1r	2B-y	2d	2a]
.	.	2c	2e	2g
.	2r	[1F	[1f	[1a
.	[2c	.	.	.
=90	=90	=90	=90	=90
2r	2c]	1F]	1f]	1a]
1F	2c	.	.	.
.	1c	1r	1r	1r
2F	.	.	.	.
=91	=91	=91	=91	=91
1F	2r	0r	0r	0r
.	1c	.	.	.
2r	.	.	.	.
[2F	2c	.	.	.
=92	=92	=92	=92	=92
2F]	2A	0r	0r	0r
2F	2A	.	.	.
2D	2.B-y	.	.	.
2D	.	.	.	.
.	4A	.	.	.
=93	=93	=93	=93	=93
2.E	2G	0r	0r	0r
.	2.c	.	.	.
4D	.	.	.	.
2C	.	.	.	.
.	4B-y	.	.	.
[2F	4A	.	.	.
.	4G	.	.	.
=94	=94	=94	=94	=94
4F]	2A	1r	0r	0r
4E	.	.	.	.
4D	2.B-y	.	.	.
4C	.	.	.	.
4D	.	2r	.	.
4C	4A	.	.	.
4BB-y	[2A	2F	.	.
4AA	.	.	.	.
=95	=95	=95	=95	=95
2BB-y	2A]	2F	0r	0r
2C	2G	2E	.	.
1FF	[1A	2.F	.	.
.	.	4G	.	.
=96	=96	=96	=96	=96
2r	2A]	4A	0r	0r
.	.	4B-y	.	.
2F	4G	2.c	.	.
.	4F	.	.	.
2F	1G	.	.	.
.	.	4B-y	.	.
2E	.	4A	.	.
.	.	4G	.	.
=97	=97	=97	=97	=97
1F	2F	1A	1r	0r
.	2c	.	.	.
2E	2c	2G	2r	.
2D	2B-y	2F	2f	.
=98	=98	=98	=98	=98
1C	2.c	1G	2f	2r
.	.	.	2e	2cc
.	4B-y	.	.	.
1D	2A	2F	1f	2cc
.	2B-y	2f	.	2b-y
=99	=99	=99	=99	=99
1C	1G	2f	1g	2.cc
.	.	2e	.	.
.	.	.	.	4b-y
2r	1F	1f	2c	4a
.	.	.	.	4g
2D	.	.	[2d	2a
=100	=100	=100	=100	=100
2E	2r	2e	4d]	2g
.	.	.	4c	.
2F	1F	2c	1c	1a
1D	.	1d	.	.
.	2F	.	2Bni	4g
.	.	.	.	4f
=101	=101	=101	=101	=101
2C	2G	2r	1c	2e
2F	1A	2c	.	4f
.	.	.	.	4g
2F	.	2c	1r	4a
.	.	.	.	4b-y
2E	2G	2c	.	[2cc
=102	=102	=102	=102	=102
1.F	1.c	1A	2r	4cc]
.	.	.	.	4b-y
.	.	.	2f	4a
.	.	.	.	4g
.	.	2r	2f	2a
2C	2c	2G	2e	[2g
=103	=103	=103	=103	=103
2D	2.A	2d	2f	4g]
.	.	.	.	4f
2D	.	2B-y	2d	1f
.	8GL	.	.	.
.	8FJ	.	.	.
1C	1G	1c	2e	.
.	.	.	[2c	2e
=104	=104	=104	=104	=104
2r	[0Fl	2A	4c]	[0fl
.	.	.	4B-y	.
1F	.	1c	4A	.
.	.	.	4G	.
.	.	.	1A	.
2F	.	2c	.	.
=105	=105	=105	=105	=105
1BB-y	0F_	1d	1B-y	0f_
[1FFl	.	[1cl	[1Al	.
=	=	=	=	=
00FF]	00F]	00c]	00A]	00f]
=||	=||	=||	=||	=||
*M2/1	*M2/1	*M2/1	*M2/1	*M2/1
*met(C|)	*met(C|)	*met(C|)	*met(C|)	*met(C|)
!!section: Secunda pars: Stetit Jesus
!!!OMD: Secunda pars: Stetit Jesus
0C	0G	0c	0e	0g
=106	=106	=106	=106	=106
1C	1G	1c	1e	1g
[1FF	[1F	[1c	[1f	[1a
=107	=107	=107	=107	=107
1FF]	1F]	1c]	1f]	1a]
[1C	1G	[1c	[1e	[1g
=108	=108	=108	=108	=108
1C]	2r	0c_	0e]	0g_
.	2G	.	.	.
2r	2G	.	.	.
2C	2G	.	.	.
=109	=109	=109	=109	=109
2C	2.c	1c]	2r	1g]
2C	.	.	2c	.
.	4B-y	.	.	.
[1F	4A	1r	2c	1r
.	4G	.	.	.
.	[2A	.	2c	.
=110	=110	=110	=110	=110
2F]	2A]	0r	1.f	0r
2E	2G	.	.	.
2D	2F	.	.	.
2C	[2G	.	2e	.
=111	=111	=111	=111	=111
2BB-y	4G]	2r	2d	0r
.	4F	.	.	.
2.C	4E	2G	2c	.
.	4D	.	.	.
.	1E	2G	2.c	.
4BB-y	.	.	.	.
4AA	.	2G	.	.
4GG	.	.	4B-y	.
=112	=112	=112	=112	=112
2FF	1F	1.c	4A	0r
.	.	.	4G	.
2F	.	.	2A	.
4E	1r	.	2G	.
4F	.	.	.	.
4G	.	2B-y	[2d	.
4E	.	.	.	.
=113	=113	=113	=113	=113
4F	0r	2A	4d]	0r
4E	.	.	4c	.
4D	.	2G	1c	.
4C	.	.	.	.
1D	.	1F	.	.
.	.	.	2Bni	.
=114	=114	=114	=114	=114
4C	2r	2G	1c	0r
4BB-y	.	.	.	.
4AA	2c	1A	.	.
4GG	.	.	.	.
2FF	2c	.	1r	.
[2F	2A	4G	.	.
.	.	4F	.	.
=115	=115	=115	=115	=115
4F]	1B-y	1G	1r	1r
4E	.	.	.	.
4E	.	.	.	.
8DL	.	.	.	.
8EJ	.	.	.	.
[1F	[1A	1F	2r	2r
.	.	.	2f	2cc
=116	=116	=116	=116	=116
1F]	1A]	0r	2f	2cc
.	.	.	2f	2a
1r	1r	.	1g	1b-y
=117	=117	=117	=117	=117
2r	0r	2r	1.f	1a
2F	.	2c	.	.
2F	.	2c	.	2r
2F	.	2A	2f	[2a
=118	=118	=118	=118	=118
1G	1r	1B-y	2.d	2a]
.	.	.	.	2g
.	.	.	4e	.
[1F	2r	[1A	[1f	[1a
.	2c	.	.	.
=119	=119	=119	=119	=119
2F]	2c	1A]	2f]	2a]
2F	2A	.	2f	2a
1G	1B-y	1r	1d	1g
=120	=120	=120	=120	=120
1D	4A	2r	1d	4f
.	4G	.	.	4e
.	4A	2d	.	4f
.	4B-y	.	.	4g
2C	2c	2e	1r	4a
.	.	.	.	4g
2BB-y	[2d	[2f	.	[2b-y
=121	=121	=121	=121	=121
1F	4d]	2f]	0r	4b-]
.	4c	.	.	4a
.	4B-y	2f	.	1a
.	4A	.	.	.
1G	1B-y	[1d	.	.
.	.	.	.	2g
=122	=122	=122	=122	=122
0D	1A	1d]	0f	0a
.	1r	1d	.	.
=123	=123	=123	=123	=123
1r	1B-y	0d	0f	1r
1BB-y	[1B-y	.	.	1dd
=124	=124	=124	=124	=124
0BB-y	1B-]	1d	[0f	0dd
.	[1F	1B-y	.	.
=125	=125	=125	=125	=125
1FF	0F]	2A	0f]	0cc
.	.	2.c	.	.
2r	.	.	.	.
.	.	4B-y	.	.
[2F	.	4A	.	.
.	.	4G	.	.
=126	=126	=126	=126	=126
2F]	2r	2A	0r	0r
2E	1c	1G	.	.
1D	.	.	.	.
.	2B-y	2F	.	.
=127	=127	=127	=127	=127
0C	1A	0c	2r	1r
.	.	.	1f	.
.	[1G	.	.	2r
.	.	.	2e	[2cc
=128	=128	=128	=128	=128
0r	1G]	1r	1d	2cc]
.	.	.	.	2b-y
.	1r	2r	2.c	1a
.	.	[2c	.	.
.	.	.	4d	.
=129	=129	=129	=129	=129
0r	0r	2c]	2e	2g
.	.	2B-y	2.f	2.dd
.	.	1A	.	.
.	.	.	4e	4cc
.	.	.	4d	[2cc
.	.	.	4c	.
=130	=130	=130	=130	=130
1r	2r	1G	1d	2cc]
.	1B-y	.	.	2bni
2r	.	1r	1c	1cc
[2F	2A	.	.	.
=131	=131	=131	=131	=131
2F]	1G	2r	0r	2r
2E	.	1c	.	2c
1D	1F	.	.	2.f
.	.	2B-y	.	.
.	.	.	.	8eL
.	.	.	.	8dJ
=132	=132	=132	=132	=132
2C	2.c	4A	2r	2e
.	.	4G	.	.
1F	.	4A	1f	1a
.	4B-y	4B-y	.	.
.	2A	1c	.	.
2C	2E	.	2e	[2g
=133	=133	=133	=133	=133
2D	2F	2A	1d	4g]
.	.	.	.	4f
2BB-y	2D	2B-y	.	1f
1C	1E	1G	1c	.
.	.	.	.	2e
=134	=134	=134	=134	=134
[0FF	2C	[0F	0A	1f
.	2c	.	.	.
.	1c	.	.	2r
.	.	.	.	2cc
=135	=135	=135	=135	=135
0FF]	2A	0F]	2r	1cc
.	2.c	.	2f	.
.	.	.	1f	2a
.	4B-y	.	.	.
.	2A	.	.	2cc
=136	=136	=136	=136	=136
0r	2G	1r	2d	2b-y
.	2F	.	2f	2a
.	1c	2r	2.e	[1g
.	.	2c	.	.
.	.	.	4d	.
=137	=137	=137	=137	=137
0r	0r	1c	2c	2g]
.	.	.	1e	2g
.	.	2A	.	1cc
.	.	2c	2e	.
=138	=138	=138	=138	=138
0r	0r	2B-y	4f	2dd
.	.	.	4e	.
.	.	2A	4d	2.cc
.	.	.	4c	.
.	.	1G	1d	.
.	.	.	.	4bni
.	.	.	.	4bni
.	.	.	.	8aL
.	.	.	.	8bniJ
=139	=139	=139	=139	=139
1r	2r	0A	1c	0cc
.	2c	.	.	.
2r	1c	.	1r	.
2F	.	.	.	.
=140	=140	=140	=140	=140
1F	2A	0r	0r	0r
.	2c	.	.	.
2D	2B-y	.	.	.
2F	2A	.	.	.
=141	=141	=141	=141	=141
2.E	0G	1r	0r	0r
4D	.	.	.	.
1C	.	2r	.	.
.	.	2c	.	.
=142	=142	=142	=142	=142
1r	2r	1c	0r	0r
.	2F	.	.	.
2r	1F	2A	.	.
2FF	.	2c	.	.
=143	=143	=143	=143	=143
2GG	2D	2B-y	1r	2r
2FF	1F	2A	.	2cc
1C	.	1G	2r	1cc
.	2E	.	2c	.
=144	=144	=144	=144	=144
4FF	2F	0r	1c	1a
4GG	.	.	.	.
4AA	2.c	.	.	.
4BB-y	.	.	.	.
4C	.	.	2A	1r
4D	4B-y	.	.	.
4E	2A	.	2c	.
4C	.	.	.	.
=145	=145	=145	=145	=145
4D	2G	0r	2B-y	1r
4E	.	.	.	.
2.F	2F	.	2A	.
.	1B-y	.	1G	2r
4E	.	.	.	.
4E	.	.	.	2g
8DL	.	.	.	.
8EJ	.	.	.	.
=146	=146	=146	=146	=146
1F	1A	0r	2r	2a
.	.	.	2c	1cc
1D	2A	.	2d	.
.	4G	.	[2f	2bni
.	4F	.	.	.
=147	=147	=147	=147	=147
1C	1G	2r	2f]	2.cc
.	.	2G	2e	.
.	.	.	.	4b-y
1FF	1F	2A	1f	4a
.	.	.	.	4g
.	.	[2c	.	[2a
=148	=148	=148	=148	=148
0r	2r	2c]	1d	4a]
.	.	.	.	4g
.	2G	2B-y	.	2b-y
.	2A	1c	2c	2.a
.	2F	.	[2f	.
.	.	.	.	8gL
.	.	.	.	8fJ
=149	=149	=149	=149	=149
2r	1c	0r	2f]	1g
2C	.	.	2e	.
2D	2A	.	[1f	2f
2BB-y	[2d	.	.	[2b-y
=150	=150	=150	=150	=150
1F	4d]	0r	2f]	4b-]
.	4c	.	.	4a
.	4B-y	.	2f	1a
.	4A	.	.	.
1G	1B-y	.	2.d	.
.	.	.	.	2g
.	.	.	4e	.
=151	=151	=151	=151	=151
1.F	1A	1r	2.f	1.a
.	.	.	4e	.
.	2D	2r	4d	.
.	.	.	4c	.
2E	2E	2G	[2c	2g
=152	=152	=152	=152	=152
1D	2F	2A	4c]	1f
.	.	.	4B-y	.
.	2D	2F	1B-y	.
1C	1E	1c	.	1e
.	.	.	2A	.
=153	=153	=153	=153	=153
2.BB-y	2r	0F	4B-y	2d
.	.	.	4c	.
.	2.F	.	4d	1dd
4C	.	.	4e	.
4D	.	.	2.f	.
4E	4G	.	.	.
[2F	4A	.	.	4cc
.	4B-y	.	4e	4b-y
=154	=154	=154	=154	=154
2F]	2.c	2r	4c	2a
.	.	.	4d	.
2E	.	2G	2e	2.g
.	4B-y	.	.	.
2F	2A	2A	2c	.
.	.	.	.	4f
2D	4G	2B-y	2d	[2f
.	4F	.	.	.
=155	=155	=155	=155	=155
1C	1G	1c	2e	2f]
.	.	.	2.c	2e
[1FF	1F	1A	.	[1f
.	.	.	4B-y	.
.	.	.	4A	.
.	.	.	4G	.
=156	=156	=156	=156	=156
1FF]	1r	1c	1A	1f]
1r	[1F	[1c	1f	1a
=157	=157	=157	=157	=157
1r	1F]	1c]	0f	1a
1BB-y	[1F	[1d	.	[1b-y
=158	=158	=158	=158	=158
1BB-y	1F]	2d]	1.f	2b-]
.	.	2d	.	2b-y
[1FF	[1F	1c	.	1a
.	.	.	2f	.
=159	=159	=159	=159	=159
2FF]	2F]	1c	2c	1a
2FF	2F	.	1f	.
[1C	1G	[1c	.	1g
.	.	.	4e	.
.	.	.	4d	.
=160	=160	=160	=160	=160
1C]	1G	1c]	1e	1cc
[1D	1F	2r	2d	2b-y
.	.	[2F	[2c	[2a
=161	=161	=161	=161	=161
1D]	2r	2F]	2c]	2a]
.	2D	2F	2Bni	4g
.	.	.	.	4f
[1C	4E	1G	[1c	2.e
.	4D	.	.	.
.	4E	.	.	.
.	4F	.	.	4d
=162	=162	=162	=162	=162
2C]	2G	1E	0c_	4e
.	.	.	.	4f
2C	2E	.	.	2.g
2AA	1A	1C	.	.
.	.	.	.	4f
2FF	.	.	.	[2f
=163	=163	=163	=163	=163
1C	1G	2r	1c]	2f]
.	.	1C	.	2e
1FF	1F	.	1A	[1f
.	.	[2F	.	.
=164	=164	=164	=164	=164
2r	1A	4F]	0r	1f]
.	.	4G	.	.
2F	.	4A	.	.
.	.	4F	.	.
2F	1G	2B-y	.	1r
2E	.	2B-y	.	.
=165	=165	=165	=165	=165
1F	2r	1A	1r	0r
.	2c	.	.	.
2E	2c	2G	2r	.
2D	2B-y	2F	2f	.
=166	=166	=166	=166	=166
1C	2.c	1G	2f	2r
.	.	.	2e	2cc
.	4B-y	.	.	.
1D	2A	2F	1f	2cc
.	2B-y	2f	.	2b-y
=167	=167	=167	=167	=167
1C	1G	2f	1g	2.cc
.	.	2e	.	.
.	.	.	.	4b-y
2r	1F	1f	2c	4a
.	.	.	.	4g
2D	.	.	[2d	2a
=168	=168	=168	=168	=168
2E	2r	2e	4d]	2g
.	.	.	4c	.
2F	1F	2c	1c	1a
1D	.	1d	.	.
.	2F	.	2Bni	4g
.	.	.	.	4f
=169	=169	=169	=169	=169
2C	2G	2r	1c	2e
2F	1A	2c	.	4f
.	.	.	.	4g
2F	.	2c	1r	4a
.	.	.	.	4b-y
2E	2G	2c	.	[2cc
=170	=170	=170	=170	=170
1.F	1.c	1A	2r	4cc]
.	.	.	.	4b-y
.	.	.	2f	4a
.	.	.	.	4g
.	.	2r	2f	2a
2C	2c	2G	2e	[2g
=171	=171	=171	=171	=171
2D	2.A	2d	2f	4g]
.	.	.	.	4f
2D	.	2B-y	2d	1f
.	8GL	.	.	.
.	8FJ	.	.	.
1C	1G	1c	2e	.
.	.	.	[2c	2e
=172	=172	=172	=172	=172
2r	[0Fl	2A	4c]	[0fl
.	.	.	4B-y	.
1F	.	1c	4A	.
.	.	.	4G	.
.	.	.	1A	.
2F	.	2c	.	.
=173	=173	=173	=173	=173
1BB-y	0F_	1d	1B-y	0f_
[1FFl	.	[1cl	[1Al	.
=174	=174	=174	=174	=174
00FF]	00F]	00c]	00A]	00f]
==	==	==	==	==
*-	*-	*-	*-	*-
!!!system-decoration: [*]
!!!RDF**kern: i = editorial accidental
!!!RDF**kern: l = terminal long
!!!ENC: Benjamin Ory
!!!END: 2021/6/7
!!!EED: Benjamin Ory
!!!EEV: 2021/06/07
!!!YEC: Copyright 2021 Benjamin Ory, All Rights Reserved
!!!ONB: Translated from MusicXML on 2021/06/07
